img/coolroof-grey.svg

<svg xmlns="http://www.w3.org/2000/svg" width="95" height="100" viewBox="0 0 104 109" fill="none">
  <path d="M5.69523 45.1103C3.83176 44.4566 2.81458 43.1383 1.91132 41.8445C0.934828 40.4502 2.06322 39.6962 3.06955 38.7088C11.3019 30.6338 20.1229 23.2504 28.8788 15.7639C33.802 11.5569 38.7143 7.25217 43.4259 2.7603C45.8535 0.446551 47.9232 0.0722278 51.0669 2.90948C58.6917 9.79376 67.3717 17.1175 75.7641 24.5442C81.01 29.2124 85.7758 34.0488 91.2198 38.4972C92.9992 39.9511 94.2225 41.1609 91.9088 43.4692C90.0155 45.3571 88.9956 46.2631 86.5353 44.0307C73.9413 32.6003 60.764 21.113 48.2324 10.3363C46.1573 8.55145 45.2866 9.61474 44.1718 10.6699C33.9647 20.3236 14.0632 37.8707 14.0632 37.8707C14.0632 37.8707 8.43755 43.0813 5.69252 45.1076L5.69523 45.1103Z" fill="#707070"/>
  <path d="M25.5913 13.8651L15.3435 22.0622C14.8282 22.4745 14.0632 22.1083 14.0632 21.4464V5.94461C14.0632 5.51061 14.4159 5.15527 14.8526 5.15527H25.1003C25.5343 5.15527 25.8897 5.5079 25.8897 5.94461V13.252C25.8897 13.4907 25.7812 13.7186 25.594 13.8678L25.5913 13.8651Z" fill="#707070"/>
  <path d="M68.161 77.4758C60.1945 77.3971 54.6475 71.7796 54.7207 63.8645C54.7912 56.0336 60.5362 50.5137 68.5326 50.5896C76.4097 50.6656 82.0978 56.4242 82.0137 64.2361C81.9296 72.0616 76.1791 77.5571 68.1637 77.4758H68.161ZM60.7641 64.2578C60.8482 69.3302 63.9377 72.7018 68.4431 72.6475C73.095 72.5906 76.0055 69.0481 75.8428 63.6421C75.6882 58.502 72.6258 55.3066 68.0254 55.4857C63.5607 55.6593 60.68 59.1394 60.7668 64.2606L60.7641 64.2578Z" fill="#707070"/>
  <path d="M51.3979 63.8887C51.4495 71.8579 45.9513 77.4131 37.9467 77.4755C29.9422 77.5379 24.1782 72.0125 24.1049 64.2142C24.0317 56.4049 29.7089 50.6816 37.6158 50.5866C45.5688 50.4917 51.3464 56.0686 51.3979 63.8887ZM45.3735 63.8642C45.284 58.7811 42.2135 55.4176 37.6972 55.4583C33.0941 55.4989 30.0209 59.1852 30.2026 64.4447C30.3789 69.5171 33.5254 72.7883 38.0742 72.631C42.5308 72.4764 45.4603 68.9556 45.3708 63.8642H45.3735Z" fill="#707070"/>
  <path d="M38.0117 82.0107C45.981 82.0053 51.623 87.5795 51.6094 95.4402C51.5958 103.29 45.9403 108.824 37.9575 108.805C30.0397 108.786 24.2811 103.127 24.2947 95.3806C24.3056 87.6174 30.0533 82.0189 38.0117 82.0135V82.0107ZM45.547 95.5216C45.5958 90.4249 42.6474 86.9258 38.2152 86.82C33.6663 86.7115 30.5822 90.0017 30.4764 95.0768C30.3625 100.48 33.2757 103.917 37.9765 103.922C42.566 103.925 45.5009 100.673 45.5497 95.5216H45.547Z" fill="#707070"/>
  <path d="M82.1627 95.5569C82.0976 103.401 76.4014 108.883 68.405 108.797C60.4629 108.71 54.8073 103.049 54.8806 95.2613C54.9511 87.5009 60.7558 81.9321 68.7007 82.0081C76.6835 82.084 82.2278 87.6663 82.1627 95.5597V95.5569ZM60.9837 95.3562C60.9457 100.464 63.8698 103.841 68.405 103.92C72.9837 103.998 76.0298 100.749 76.1492 95.6573C76.2712 90.4439 73.103 86.7793 68.5054 86.8146C64.0569 86.8472 61.0244 90.292 60.9864 95.3562H60.9837Z" fill="#707070"/>
  <path d="M1.80005 82.3663C5.0496 82.3663 8.07945 82.2496 11.0957 82.3961C14.9529 82.5806 18.7287 83.2831 20.1229 87.5797C21.5144 91.8708 19.6672 95.0417 15.9239 97.3555C18.1292 100.857 20.2856 104.28 22.6102 107.975C18.2947 109.236 15.4004 108.536 13.4068 104.356C12.3326 102.102 11.8525 98.5055 7.37149 99.0426V108.27H1.80005V82.3717V82.3663ZM7.55051 95.728C10.2955 94.4314 12.5008 93.8157 14.0442 92.4594C14.7196 91.8654 14.5867 88.9874 13.8706 88.4829C12.216 87.3193 9.9809 86.9748 7.55051 86.1529V95.728Z" fill="#707070"/>
  <path d="M19.5994 70.5426C20.4539 71.4377 21.3652 72.3898 22.2685 73.3337C17.1582 78.558 8.81188 78.8401 3.8833 74.1448C-1.12394 69.3762 -1.32195 59.671 3.48185 54.5579C8.25311 49.4829 16.217 49.2442 21.9457 54.1836C21.1455 55.2279 20.3372 56.2858 19.396 57.5145C15.1564 55.4883 10.9303 53.7333 7.55871 58.548C5.34804 61.7053 5.70609 67.3283 8.14461 70.1954C10.7405 73.2496 13.7459 73.3744 19.5994 70.5426Z" fill="#707070"/>
  <path d="M87.3465 82.5127H103.629C103.692 83.7523 103.757 85.0136 103.846 86.7713H93.1837V93.5932H101.747V98.1719H93.1729V108.148H87.3438V82.5154L87.3465 82.5127Z" fill="#707070"/>
  <path d="M86.9639 51.105H92.6411V72.3844H102.281V76.9685H86.9612V51.1077L86.9639 51.105Z" fill="#707070"/>
</svg>

<svg width="104" height="109" fill="none" xmlns="http://www.w3.org/2000/svg"><path d="M5.695 45.11c-1.863-.653-2.88-1.972-3.784-3.266-.976-1.394.152-2.148 1.159-3.135 8.232-8.075 17.053-15.459 25.809-22.945 4.923-4.207 9.835-8.512 14.547-13.004 2.427-2.313 4.497-2.688 7.64.15 7.626 6.884 16.306 14.207 24.698 21.634 5.246 4.668 10.012 9.505 15.456 13.953 1.78 1.454 3.002 2.664.689 4.972-1.894 1.888-2.913 2.794-5.374.562C73.941 32.6 60.764 21.113 48.232 10.336c-2.075-1.785-2.945-.721-4.06.334-10.207 9.654-30.109 27.2-30.109 27.2s-5.625 5.211-8.37 7.238l.002.002zm19.896-31.245l-10.248 8.197a.788.788 0 01-1.28-.616V5.945a.79.79 0 01.79-.79H25.1a.79.79 0 01.79.79v7.307a.789.789 0 01-.296.616l-.003-.003zm42.57 63.611c-7.967-.079-13.514-5.696-13.44-13.611.07-7.831 5.815-13.351 13.812-13.275 7.877.076 13.565 5.834 13.48 13.646-.083 7.826-5.834 13.321-13.85 13.24h-.002zm-7.397-13.218c.084 5.072 3.174 8.444 7.68 8.39 4.651-.057 7.561-3.6 7.399-9.006-.155-5.14-3.217-8.335-7.818-8.156-4.464.173-7.345 3.653-7.258 8.775l-.003-.003zm-9.366-.369c.051 7.969-5.447 13.524-13.451 13.586-8.005.063-13.769-5.462-13.842-13.26-.073-7.81 5.604-13.533 13.51-13.628 7.954-.095 13.731 5.482 13.783 13.302zm-6.025-.025c-.089-5.083-3.16-8.446-7.676-8.406-4.603.04-7.676 3.727-7.494 8.987.176 5.072 3.322 8.343 7.871 8.186 4.457-.155 7.386-3.675 7.297-8.767h.002zM38.012 82.01c7.969-.005 13.611 5.57 13.597 13.43-.013 7.85-5.669 13.384-13.651 13.365-7.918-.019-13.677-5.678-13.663-13.424.01-7.764 5.758-13.362 13.717-13.368v-.002zm7.535 13.512c.049-5.097-2.9-8.596-7.332-8.702-4.549-.108-7.633 3.182-7.739 8.257-.113 5.403 2.8 8.84 7.5 8.845 4.59.003 7.525-3.249 7.574-8.4h-.003zm36.616.035c-.065 7.844-5.762 13.326-13.758 13.24-7.942-.087-13.598-5.748-13.524-13.536.07-7.76 5.875-13.329 13.82-13.253 7.983.076 13.527 5.658 13.462 13.552v-.003zm-21.18-.2c-.037 5.107 2.887 8.484 7.422 8.563 4.579.078 7.625-3.171 7.744-8.263.122-5.213-3.046-8.878-7.644-8.842-4.448.032-7.48 3.477-7.519 8.541h-.002zM1.8 82.366c3.25 0 6.28-.116 9.296.03 3.857.185 7.633.887 9.027 5.184 1.391 4.29-.456 7.462-4.2 9.776 2.206 3.501 4.363 6.924 6.687 10.619-4.315 1.261-7.21.561-9.203-3.619-1.074-2.254-1.555-5.85-6.036-5.313v9.227H1.8V82.366zm5.75 13.362c2.746-1.297 4.95-1.912 6.494-3.269.676-.594.543-3.472-.173-3.976-1.655-1.164-3.89-1.508-6.32-2.33v9.575zM19.6 70.543c.854.895 1.765 1.847 2.668 2.79-5.11 5.225-13.456 5.507-18.385.812-5.007-4.769-5.205-14.474-.401-19.587 4.771-5.075 12.735-5.314 18.464-.374l-2.55 3.33c-4.24-2.026-8.466-3.78-11.837 1.034-2.211 3.157-1.853 8.78.586 11.647 2.596 3.055 5.6 3.18 11.454.348zm67.747 11.97h16.282l.217 4.258H93.184v6.822h8.563v4.579h-8.574v9.976h-5.83V82.515l.004-.002zm-.383-31.408h5.677v21.28h9.64v4.584h-15.32V51.108l.003-.003z" fill="#707070"/></svg>
